X: 39211
T: Sylvain Barou's
R: polka
M: 2/4
K: Cmajor
|:c>A GA|cd e2|f>e dc|A/c/A/G/ E/D/E/G/|
c>A GA|cd eg|a2 a/b/c'|bg g2:|
|:ec Ad|BF cB|^GE ^GA|Bc B2|ec Ad|
BF cB|1 D/E/^G/D/ E/^G/A/E/|^G/A/B/^G/ A/B/c/d/:|2 DE GA|Bd g2||

